X:1
T:Over the Top for Jesus
T:Over the Top for Jesus
T:James V. Reid
T:James V. Reid, 1918
T:Public Domain Courtesy of the Cyber Hymnal™
T:Public Domain Courtesy of the Cyber Hymnal™
C:James V. Reid
Z:Public Domain
Z:Courtesy of the Cyber Hymnal™
%%score ( 1 2 ) ( 3 4 )
L:1/8
Q:1/4=105
M:4/4
K:G
V:1 treble 
V:2 treble 
V:3 bass 
V:4 bass 
V:1
 [DB]>[DB] [^C^A]>[CA] [DB]2 [B,G]2 | BdB (3(GB)G D4 | [DA]>[DA] [DG]>[DA] [DB]2 [CF]2 | %3
w: 1.~There’s a bat- tle rag- ing|o- ver the land * and sea,|True to Christ our cap- tain|
w: 2.~There’s a cry of sor- row|ris- ing from hearts * op- pressed,|There’s a world in sad- ness|
w: 3.~When the pow’rs of earth be-|fore our Re- deemer * shall kneel,|When the joy of tri- umph|
 [B,A]2 [B,G]2 [B,D]4 | [DB]>[DB] [^C^A]>[CA] [DB]2 [B,G]2 | BdB(3GBG D4 | %6
w: we will be;|Sa- tan’s hosts are might- y,|fight- ing for ru- in and sin,|
w: and un- rest;|But the hope that thrills us,|look- ing out in- to the night,|
w: we shall feel;|Then with Christ who con- quered,|in- to the realms of the blest,|
 [DA]>[DA] [D^G]>[DA] [DB]2 [DF]2 | A>^A B>^c d4 |: %8
w: But in this great con- flict|right is sure to win.|
w: Christ, the Lord of bat- tles,|leads me in the fight.|
w: We shall march in vic- ’try|to e- ter- nal rest.|
"^Refrain" (3[Bd][^A^c][Bd] [=ce]>[Bd] [GB]2 [DG]2 x |1 [DB]>[GB] [FB]>[EB] [DB]3 z | %10
w: O- ver the top for Je- sus|brave- ly we will go:|
w: Ne- ver de- lay- ing when we|hear the bu- gle blow,|
w: ||
 (3[Bd][^A^c][Bd] [=ce]>[Bd] [GB]2 [DG]2 x | [^CB]>[CA] [CA]>[CE] [DA]3 z :|2 [DB] || %13
w: O- ver the top for Je- sus,|rout- ing ev- ’ry foe,||
w: ~ ~ ~ ~ ~ ~ ~|~ ~ ~ ~ ~|We’ll|
w: |||
 [EA]>[EA] [E^A]>[EA] [DB]>[GB] !fermata![Gc]>!fermata![G^c] | (3[Gd][GB][DG] [GB]>[FA] [DG]4 |] %15
w: ||
w: fight for right with all our might, As|o- ver the top we go.|
w: ||
V:2
 x8 | (3BdB GB G D4 | x8 | x8 | x8 | (3BdB GB G D4 | x8 | ^A>A B>^c (d2 =c2) |: x9 |1 x8 | x9 | %11
 x8 :|2 x || x8 | x8 |] %15
V:3
 [G,,G,]>[G,,G,] [G,,E,]>[G,,E,] [G,,G,]2 [G,,D,]2 | B,DB, (3(G,B,)G, D,4 | %2
 [D,F,]>[D,F,] [D,^E,]>[D,F,] [D,G,]2 D,2 | [G,,D,]2 [G,,D,]2 [G,,G,]4 | %4
 [G,,G,]>[G,,G,] [G,,E,]>[G,,E,] [G,,G,]2 [G,,D,]2 | B,DB,(3G,B,G, D,4 | %6
 [A,,F,]>[A,,F,] [A,,^E,]>[A,,F,] [A,,F,]2 [A,,A,]2 | A,>G, F,>E, !fermata![D,F,]4 |: %8
 G,G,G,G,>G, [G,D]2 [G,B,]2 |1 [G,,G,]>[G,,G,] [G,,G,]>[G,,G,] [G,,G,]3 z | %10
 G,G,G,G,>G, [G,D]2 [G,B,]2 | [A,,E,]>[A,,E,] [A,,E,]>[A,,G,] [D,F,]3 z :|2 [G,,G,] || %13
 [C,G,]>[C,G,] [^C,G,]>[C,G,] [D,G,]>[D,D] [E,^C]>[_E,^A,] | %14
 (3[D,B,][D,D][D,B,] [D,D]>[D,C] [G,,B,]4 |] %15
V:4
 x8 | (3B,DB, G,B, G, D,4 | x6 D,2 | x8 | x8 | (3B,DB, G,B, G, D,4 | x8 | A,>G, F,>E, x4 |: %8
 (3G,G,G, G,>G, x5 |1 x8 | (3G,G,G, G,>G, x5 | x8 :|2 x || x8 | x8 |] %15

